brandFactory_export/1.Light/Documento_Archivo PDF_1Light.svg

<?xml version="1.0" encoding="UTF-8"?>
<svg width="24px" height="24px" viewBox="0 0 24 24" version="1.1" xmlns="http://www.w3.org/2000/svg" xmlns:xlink="http://www.w3.org/1999/xlink">
    <title>1.Light/Documento_Archivo PDF_1Light</title>
    <g id="Symbols" stroke="none" stroke-width="1" fill="none" fill-rule="evenodd">
        <g id="1.Light/Documento_Archivo-PDF_1Light" fill="#5CB615" fill-rule="nonzero">
            <path d="M16.3092437,3.8191672e-13 C16.5277311,3.8191672e-13 16.7327731,0.0840336134 16.8907563,0.235294118 L23.3815126,6.51764706 C23.4857143,6.62184874 23.5462185,6.75966387 23.5831933,6.90420168 C23.610084,6.96470588 23.6235294,7.03193277 23.6235294,7.09915966 L23.6235294,22.1747899 C23.6235294,22.9579832 22.9478992,23.6201681 22.1478992,23.6201681 L7.22352941,23.6201681 C6.43697479,23.6201681 5.74453782,22.9445378 5.74453782,22.1747899 L5.78823529,18.5310924 L2.71932773,18.5310924 C1.22016807,18.5310924 2.19122498e-10,17.3109244 2.19122498e-10,15.8084034 L2.19122498e-10,10.7932773 C2.19122498e-10,9.2907563 1.22016807,8.07058824 2.71932773,8.07058824 L5.74453782,8.07058824 L5.74453782,1.44537815 C5.74453782,0.68907563 6.44705882,3.8191672e-13 7.22352941,3.8191672e-13 L16.3092437,3.8191672e-13 Z M15.4789916,0.998319328 L7.22016807,0.998319328 C7.00168067,0.998319328 6.73277311,1.24705882 6.73277311,1.45210084 L6.73277311,8.07731092 L14.7798319,8.07731092 C16.2789916,8.07731092 17.4991597,9.29747899 17.4991597,10.8 L17.4991597,15.8151261 C17.4991597,17.3176471 16.2789916,18.5378151 14.7798319,18.5378151 L6.77983193,18.5378151 L6.73613445,22.1882353 C6.73613445,22.4033613 6.98487395,22.6352941 7.22352941,22.6352941 L22.1478992,22.6352941 L22.1478992,22.6319328 C22.3966387,22.6319328 22.6319328,22.410084 22.6319328,22.1781513 L22.6319328,7.92268908 L19.5529412,7.92268908 C18.3764706,7.92268908 17.3613445,7.54285714 16.6218487,6.82352941 C15.8756303,6.10084034 15.4789916,5.1092437 15.4789916,3.96302521 L15.4789916,0.998319328 Z M14.7831933,9.06218487 L2.71932773,9.06218487 C1.76806723,9.06218487 0.991596639,9.83865546 0.991596639,10.7932773 L0.991596639,15.8084034 C0.991596639,16.7630252 1.76470588,17.5394958 2.71932773,17.5394958 L14.7831933,17.5394958 C15.7344538,17.5394958 16.5109244,16.7630252 16.5109244,15.8084034 L16.5109244,10.7932773 C16.5109244,9.83865546 15.7378151,9.06218487 14.7831933,9.06218487 Z M8.4907563,11.1226891 C9.33445378,11.1226891 9.89579832,11.2537815 10.2655462,11.6235294 C10.6218487,11.9731092 10.8067227,12.5277311 10.8067227,13.3277311 C10.8067227,14.1344538 10.6319328,14.692437 10.2655462,15.0689076 C9.93277311,15.4084034 9.42184874,15.5697479 8.62857143,15.5697479 L7.11932773,15.5697479 L7.11932773,11.1226891 L8.4907563,11.1226891 Z M4.6184874,11.1226891 C5.31428571,11.1226891 5.75462185,11.2201681 6.04033613,11.4857143 C6.28235294,11.707563 6.39663866,12.0504202 6.39663866,12.5243697 C6.39663866,12.9983193 6.28571429,13.3579832 6.06386555,13.6033613 C5.80504202,13.8957983 5.40168067,14.0336134 4.81680672,14.0336134 L4.10084034,14.0336134 L4.10084034,15.5663866 L3.09243697,15.5663866 L3.09243697,11.1226891 L4.6184874,11.1226891 Z M14.5109244,11.1226891 L14.4336134,11.8554622 L12.594958,11.8554622 L12.594958,12.9344538 L14.0504202,12.9344538 L14.0504202,13.6941176 L12.594958,13.6941176 L12.594958,15.5663866 L11.5798319,15.5663866 L11.5798319,11.1226891 L14.5109244,11.1226891 Z M8.44369748,11.8655462 L8.13109244,11.8655462 L8.13109244,14.8302521 L8.56134454,14.8302521 C9.01512605,14.8302521 9.34117647,14.692437 9.51596639,14.4336134 C9.6907563,14.1747899 9.7512605,13.8756303 9.7512605,13.3277311 C9.7512605,12.6890756 9.65378151,12.389916 9.43865546,12.1579832 C9.23697479,11.9428571 8.93781513,11.8655462 8.44369748,11.8655462 Z M4.57815126,11.8588235 L4.10420168,11.8588235 L4.10420168,13.2773109 L4.60504202,13.2773109 L4.60504202,13.2739496 C4.93109244,13.2739496 5.06554622,13.2268908 5.19663866,13.1058824 C5.31428571,12.9882353 5.37142857,12.8 5.37142857,12.5411765 C5.37142857,12.302521 5.3210084,12.1243697 5.20336134,12.0134454 C5.0789916,11.902521 4.8907563,11.8588235 4.57815126,11.8588235 Z M16.4705882,1.21008403 L16.4705882,3.95630252 C16.4705882,4.8302521 16.7596639,5.57310924 17.3109244,6.10420168 C17.8655462,6.63865546 18.6386555,6.92436975 19.5529412,6.92436975 L22.37,6.924 L16.4705882,1.21008403 Z" id="Documento_Archivo-PDF_1Light"></path>
        </g>
    </g>
</svg>

<svg width="24" height="24" viewBox="0 0 24 24" xmlns="http://www.w3.org/2000/svg"><path d="M16.31 0c.218 0 .423.084.58.235l6.492 6.283a.824.824 0 01.201.386c.027.06.04.128.04.195v15.076c0 .783-.675 1.445-1.475 1.445H7.224c-.787 0-1.48-.675-1.48-1.445l.044-3.644H2.72C1.22 18.531 0 17.311 0 15.808v-5.015a2.723 2.723 0 012.72-2.722h3.025V1.445C5.745.69 6.447 0 7.224 0h9.085zm-.831.998H7.22c-.218 0-.487.25-.487.454v6.625h8.047c1.499 0 2.72 1.22 2.72 2.723v5.015a2.723 2.723 0 01-2.72 2.723h-8l-.044 3.65c0 .215.249.447.488.447h14.924v-.003c.249 0 .484-.222.484-.454V7.923h-3.08c-1.176 0-2.19-.38-2.93-1.1-.746-.722-1.143-1.714-1.143-2.86V.998zm-.696 8.064H2.72c-.95 0-1.727.777-1.727 1.731v5.015a1.73 1.73 0 001.727 1.731h12.064c.951 0 1.728-.776 1.728-1.73v-5.016a1.73 1.73 0 00-1.728-1.73zm-6.292 2.06c.843 0 1.405.132 1.775.502.356.35.54.904.54 1.704 0 .806-.174 1.364-.54 1.74-.333.34-.844.502-1.637.502h-1.51v-4.447h1.372zm-3.873 0c.696 0 1.137.098 1.422.364.242.222.357.564.357 1.038 0 .474-.111.834-.333 1.08-.259.292-.662.43-1.247.43H4.1v1.532H3.092v-4.443h1.526zm9.893 0l-.077.733h-1.839v1.08h1.455v.76h-1.455v1.871H11.58v-4.443h2.93zm-6.067.744H8.13v2.964h.43c.454 0 .78-.138.955-.396.175-.26.235-.558.235-1.106 0-.639-.097-.938-.312-1.17-.202-.215-.501-.292-.995-.292zm-3.866-.007h-.474v1.418h.501v-.003c.326 0 .46-.047.592-.168.117-.118.174-.306.174-.565 0-.238-.05-.417-.168-.528-.124-.11-.312-.154-.625-.154zM16.471 1.21v2.746c0 .874.289 1.617.84 2.148.555.535 1.328.82 2.242.82h2.817l-5.9-5.714z" fill="#5CB615" fill-rule="nonzero"/></svg>
